X:1
T:The Bells of Dunblane
M:C
L:1/8
Q:80
C:R. Mathieson
S:Slow Air
K:HP
{g}A3/2{d}c/2 |: \
{gef}e4-e{G}e{g}f{ag}a | \
e/2c3/2-c2-c{G}c{g}d/2c/2B |
{g}c/2e3/2-e2-e{G}e{g}d3/2B/2 | \
{g}c/2A3/2-A4{g}A3/2{d}c/2 :| \
{g}A{d}A |
{g}f4-f{g}fg/2{a}f/2g | \
M:3/4 {a}f/2d3/2-d4 | \
{g}dcB |
M:C {g}c/2e3/2-e2-e{G}e{g}d3/2B/2 | \
{d}c6{g}A{d}A | \
{g}f4-f{g}fg/2{a}f/2g |
M:3/4 {a}f/2d3/2-d4 | \
{g}dcB | \
M:C {g}c/2e3/2-e2-e{G}e{g}d3/2B/2 |
{g}c/2A3/2-A2-A2-Ae | \
{g}f{ag}ae/2c3/2-c2-c{G}c | \
{g}d/2c/2B{g}c/2e3/2-e2-e{G}e |
{g}f{ag}ae/2c3/2-c2-c{G}c | \
{g}d3/2B/2{G}A6 |
